src/icons/restql.svg

<svg viewBox="0 0 300 300" xmlns="http://www.w3.org/2000/svg"><g fill="none"><path d="M266.377 94.665c-1.327-8.361-6.357-15.836-13.806-20.138L164.349 23.59c-4.303-2.483-9.203-3.795-14.169-3.795s-9.865 1.312-14.166 3.793L47.793 74.524c-8.742 5.05-14.171 14.452-14.171 24.542v101.866c0 10.09 5.429 19.493 14.168 24.54l88.221 50.935c4.305 2.485 9.205 3.796 14.17 3.796s9.863-1.311 14.166-3.795l88.22-50.933c7.453-4.306 12.485-11.78 13.81-20.142zm-22.465 115.817-88.219 50.931a11.023 11.023 0 0 1-11.028 0l-88.219-50.931a11.03 11.03 0 0 1-5.513-9.55V99.066a11.03 11.03 0 0 1 5.513-9.55l88.219-50.934c1.705-.986 3.61-1.477 5.514-1.477s3.808.491 5.514 1.477l88.219 50.934a11.026 11.026 0 0 1 5.513 9.55v101.866a11.03 11.03 0 0 1-5.513 9.55z" fill="#83e8c2"/><path d="M249.429 99.066a11.03 11.03 0 0 0-5.513-9.55l-88.219-50.934c-1.705-.986-3.61-1.477-5.514-1.477s-3.809.491-5.514 1.477L56.45 89.516a11.026 11.026 0 0 0-5.513 9.55v101.866a11.03 11.03 0 0 0 5.513 9.55l88.219 50.931a11.023 11.023 0 0 0 11.028 0l88.219-50.931a11.03 11.03 0 0 0 5.513-9.55zm-63.612 43.093c.162-.094.33-.16.497-.203.06-.016.12-.013.178-.024.104-.017.207-.04.31-.04l.02.002c.028.001.052.006.08.008.127.007.251.026.372.054.045.012.09.027.136.041.105.034.204.078.304.13.038.018.077.036.114.058.128.077.25.166.358.27.01.011.017.024.028.033.095.097.181.204.256.32.024.04.045.08.068.122.054.098.098.201.135.312.016.045.03.088.043.134.038.157.067.319.067.491v22.048l-4.459 2.575a2.105 2.105 0 0 0-.922 1.129 2.085 2.085 0 0 0-.134.699v5.148l-19.094 11.023c-.004.003-.01.003-.014.006-.157.088-.32.155-.481.198-.061.017-.123.015-.184.025-.1.016-.204.04-.306.04l-.019-.002c-.027-.002-.053-.007-.08-.008a1.99 1.99 0 0 1-.371-.056c-.047-.011-.09-.026-.136-.041a1.793 1.793 0 0 1-.304-.128c-.04-.02-.077-.037-.114-.06a1.972 1.972 0 0 1-.358-.269c-.012-.01-.02-.026-.031-.037a2.034 2.034 0 0 1-.252-.315c-.026-.04-.046-.082-.07-.123a1.934 1.934 0 0 1-.132-.311 2.315 2.315 0 0 1-.045-.138 2.023 2.023 0 0 1-.066-.487v-27.278a1.967 1.967 0 0 1 .988-1.707zm-36.622-80.724a1.97 1.97 0 0 1 1.975 0l62.217 35.923c1.316.759 1.316 2.658 0 3.417l-23.62 13.639a1.981 1.981 0 0 1-1.976 0l-21.07-12.165 2.35-1.354c1.407-.814 1.407-2.845 0-3.657l-17.834-10.296c-.325-.19-.69-.282-1.054-.282s-.728.093-1.054.282l-4.459 2.574-19.094-11.023c-1.316-.76-1.316-2.657 0-3.418zm-37.61 22.02c.342 0 .682.089.988.264l21.069 12.163-2.35 1.356c-1.406.812-1.406 2.843 0 3.657l2.35 1.354-21.067 12.165a1.981 1.981 0 0 1-1.975 0l-23.621-13.64c-1.317-.758-1.317-2.657 0-3.416l23.62-13.639c.307-.175.647-.264.987-.264zM98.583 209.04a1.98 1.98 0 0 1-.984-.267l-23.62-13.637a1.973 1.973 0 0 1-.988-1.708v-71.843c0-1.153.944-1.977 1.975-1.977.33 0 .667.084.985.268l23.621 13.636c.611.354.988 1.004.988 1.71v24.328l-2.35-1.356c-.34-.197-.7-.285-1.05-.285a2.11 2.11 0 0 0-2.114 2.113v20.592c0 .755.4 1.452 1.054 1.829l4.458 2.576v22.047c.002 1.15-.944 1.974-1.975 1.974zm40.572 20.306a1.975 1.975 0 0 1-2.96 1.71l-23.62-13.637a1.975 1.975 0 0 1-.988-1.71v-24.327l2.348 1.355c.34.197.7.287 1.051.287 1.103 0 2.114-.882 2.114-2.116v-2.71l21.068 12.163c.61.353.987 1.003.987 1.71zm0-44.57c0 .172-.027.334-.066.489-.012.048-.029.091-.044.137-.035.11-.08.214-.134.312-.024.04-.044.083-.068.122-.077.116-.16.223-.256.32-.011.01-.02.024-.029.034a2.02 2.02 0 0 1-.359.27c-.035.022-.075.039-.111.06a2.172 2.172 0 0 1-.441.168c-.124.031-.249.05-.378.056-.025 0-.05.008-.075.008l-.02.001c-.105 0-.211-.024-.317-.04-.059-.01-.115-.008-.17-.024a2.018 2.018 0 0 1-.498-.203l-19.09-11.023v-5.147a2.105 2.105 0 0 0-1.056-1.827l-4.456-2.573v-22.043c0-.173.027-.335.067-.491.012-.047.028-.09.043-.136a1.81 1.81 0 0 1 .135-.312c.023-.04.043-.084.07-.124.073-.114.157-.221.253-.318.011-.01.02-.024.029-.034.108-.103.229-.193.358-.27.037-.022.076-.04.114-.059a2.008 2.008 0 0 1 .818-.226c.025 0 .048-.007.074-.007l.02-.001c.107 0 .214.025.322.04.054.01.11.008.166.024.168.042.334.109.498.203l23.614 13.633a1.98 1.98 0 0 1 .988 1.712zm-13.58-61.717a1.97 1.97 0 0 1-.74-.748 1.994 1.994 0 0 1 0-1.922 1.96 1.96 0 0 1 .74-.748l19.095-11.023 4.457 2.573a2.117 2.117 0 0 0 2.11 0l4.458-2.575 19.095 11.025c1.317.759 1.317 2.658 0 3.418l-23.62 13.637a1.97 1.97 0 0 1-1.975 0zm101.8 70.367a1.97 1.97 0 0 1-.987 1.709l-62.217 35.921a1.952 1.952 0 0 1-.985.267c-1.03 0-1.976-.825-1.976-1.977V202.07c0-.706.377-1.356.989-1.71l21.066-12.161v2.71c0 1.232 1.011 2.115 2.113 2.115.353 0 .711-.09 1.053-.286l17.832-10.297a2.109 2.109 0 0 0 1.055-1.828v-5.147l19.095-11.024c.318-.184.655-.267.985-.267 1.03 0 1.976.824 1.976 1.976v27.275zm0-44.565c0 .706-.375 1.356-.987 1.708l-21.068 12.164v-2.71c0-1.233-1.012-2.114-2.114-2.114a2.066 2.066 0 0 0-1.052.285l-2.349 1.355v-24.327c0-.706.377-1.356.99-1.71l23.62-13.636a1.96 1.96 0 0 1 .984-.268c1.031 0 1.976.824 1.976 1.977z" fill="#111d5a"/><path d="M114.05 141.958zm47.72 44.195zm.39.313zm-23.118-1.061zm-.957 1.115zm.471-.326zm.596-1.414zm-1.506 1.904zm23.627-1.414zm-23.107 15.097-21.069-12.163v2.711c0 1.233-1.01 2.115-2.113 2.115-.353 0-.712-.09-1.052-.287l-2.347-1.354v24.327c0 .706.375 1.356.987 1.71l23.62 13.637c.318.184.656.267.986.267a1.975 1.975 0 0 0 1.975-1.977v-27.276a1.978 1.978 0 0 0-.987-1.71zm23.284-14.649zm21.805-15.398zm-21.472-14.2a1.86 1.86 0 0 1 .412-.316l23.62-13.637-23.62 13.637a1.893 1.893 0 0 0-.412.316zm-22.943 29.72zm-26.66-43.382zm.472-.33zm.912-.234-.02.001c.112-.001.226.02.34.04-.107-.017-.214-.041-.32-.041zm-1.667.916zm1.193-.852zm-1.505 1.916zm25.101 42.823zm-24.991-43.45zm24.493 43.246-19.09-11.031zm.985.259.02-.002c-.111.002-.226-.021-.337-.04.106.017.212.042.317.042zm48.639-44.593zm-46.924 14.355zm48.937-14.331zm-23.671 44.31zm23.249-44.496zm-.598-.105c-.102 0-.205.025-.31.04.11-.02.22-.04.329-.038l-.019-.002zm38.589-22.284c-.328 0-.665.084-.985.268l-23.62 13.636a1.977 1.977 0 0 0-.989 1.71v24.327l2.35-1.355c.34-.197.7-.287 1.05-.285 1.103 0 2.115.88 2.115 2.113v2.711l21.068-12.164c.61-.352.987-1.002.987-1.708v-27.276a1.975 1.975 0 0 0-1.976-1.977zM186.9 141.9zm-23.718 44.852c.101 0 .204-.025.306-.04-.108.018-.216.038-.323.038l.017.002zm-.098 0zm-13.891-50.056zm13.384 49.96zm62.817-22.484a1.98 1.98 0 0 0-.985.267l-19.094 11.024v5.147a2.11 2.11 0 0 1-1.056 1.829l-17.832 10.296c-.342.196-.7.286-1.053.286a2.113 2.113 0 0 1-2.112-2.115v-2.71l-21.067 12.162a1.977 1.977 0 0 0-.989 1.71v27.276c0 1.152.945 1.976 1.976 1.976.33 0 .667-.084.985-.267l62.217-35.921c.61-.352.988-1.004.988-1.709v-27.276c-.002-1.149-.947-1.975-1.978-1.975zM125.57 75.074c-1.315.76-1.315 2.658 0 3.418l19.095 11.023 4.458-2.575c.327-.189.691-.281 1.055-.281s.729.092 1.054.281l17.833 10.297c1.408.812 1.408 2.843 0 3.656l-2.349 1.355 21.07 12.164a1.981 1.981 0 0 0 1.975 0l23.62-13.639c1.316-.759 1.316-2.657 0-3.416l-62.216-35.923a1.97 1.97 0 0 0-1.975 0zM86.976 97.358c-1.317.759-1.317 2.658 0 3.417l23.621 13.639a1.981 1.981 0 0 0 1.975 0l21.067-12.165-2.35-1.354c-1.406-.814-1.406-2.845 0-3.657l2.35-1.356L112.57 83.72a1.983 1.983 0 0 0-1.974 0zm13.58 109.702v-22.048l-4.459-2.576a2.107 2.107 0 0 1-1.054-1.828v-20.592a2.11 2.11 0 0 1 2.114-2.114c.352 0 .711.088 1.051.286l2.35 1.356v-24.329c0-.706-.376-1.356-.988-1.71l-23.621-13.634a1.953 1.953 0 0 0-.985-.268 1.975 1.975 0 0 0-1.975 1.976v71.842c0 .704.375 1.356.987 1.708l23.62 13.638c.319.183.656.266.985.266 1.03.001 1.975-.823 1.975-1.974zm88.221-41.147-4.458 2.575 4.458-2.575v-22.047zm-.313-23.105zm.068.122z" fill="#83e8c2"/><path d="M161.783 156.12a1.971 1.971 0 0 0-.577 1.391v27.277l.001.002c0 .172.028.332.066.487.013.046.028.09.045.138.035.108.08.212.133.311.023.04.043.083.07.123.074.114.156.22.25.315.013.012.021.027.032.037.108.105.23.193.358.27.037.022.075.039.114.059a1.987 1.987 0 0 0 .81.224c.028.002.054.007.081.009.108 0 .215-.022.324-.039.061-.009.122-.008.183-.024.162-.042.324-.109.482-.199.004-.002.01-.002.014-.005l19.094-11.023v-5.148c0-.245.054-.477.133-.7a2.1 2.1 0 0 1 .923-1.129l4.458-2.574v-22.048c0-.173-.028-.334-.066-.49-.013-.046-.029-.09-.044-.136a1.723 1.723 0 0 0-.135-.311c-.023-.042-.043-.083-.068-.122a1.939 1.939 0 0 0-.255-.32c-.011-.011-.02-.023-.029-.033a1.918 1.918 0 0 0-.358-.27c-.036-.022-.076-.04-.114-.059a2.053 2.053 0 0 0-.44-.17 2.165 2.165 0 0 0-.37-.054c-.03-.002-.054-.007-.08-.009-.11 0-.22.02-.33.039-.058.01-.118.008-.178.024a1.93 1.93 0 0 0-.497.203l-23.62 13.637a1.968 1.968 0 0 0-.41.317zm-23.619-.326L114.55 142.16a1.938 1.938 0 0 0-.498-.202c-.056-.017-.112-.014-.166-.024-.114-.02-.228-.04-.341-.039-.026 0-.05.007-.075.007-.13.007-.256.027-.378.056-.047.012-.089.027-.135.04a1.913 1.913 0 0 0-.305.13c-.038.019-.077.036-.114.058a2.06 2.06 0 0 0-.358.27l-.028.035a2.009 2.009 0 0 0-.255.318c-.025.04-.046.083-.069.124-.054.1-.098.203-.135.311a1.99 1.99 0 0 0-.11.627v22.044l4.456 2.573a2.105 2.105 0 0 1 1.056 1.827v5.147l19.09 11.023c.162.093.33.16.498.203.056.016.112.013.17.023.112.019.226.04.337.04.026 0 .05-.007.075-.009.13-.005.256-.026.378-.056.047-.01.089-.025.135-.039.105-.034.207-.079.306-.13.037-.02.076-.036.112-.058a2.07 2.07 0 0 0 .359-.27c.01-.011.019-.025.028-.034.095-.097.181-.204.256-.32.024-.04.045-.082.068-.122.054-.098.098-.203.135-.312a1.97 1.97 0 0 0 .11-.627v-27.268a1.98 1.98 0 0 0-.988-1.712zm13.002-19.098 23.62-13.637c1.317-.76 1.317-2.66 0-3.418l-19.094-11.025-4.459 2.575a2.117 2.117 0 0 1-2.11 0l-4.457-2.573-19.095 11.023a1.96 1.96 0 0 0-.74.748 1.994 1.994 0 0 0 0 1.922c.165.296.413.558.74.748l23.622 13.637a1.969 1.969 0 0 0 1.973 0z" fill="#de5941"/></g></svg>

<svg
  width="300"
  height="300"
  viewBox="0 0 300 300"
  fill="none"
  xmlns="http://www.w3.org/2000/svg"
>
  <path
    d="M266.377 94.665C265.05 86.304 260.02 78.829 252.571 74.527L164.349 23.59C160.046 21.107 155.146 19.795 150.18 19.795C145.214 19.795 140.315 21.107 136.014 23.588L47.793 74.524C39.051 79.574 33.622 88.976 33.622 99.066V200.932C33.622 211.022 39.051 220.425 47.79 225.472L136.011 276.407C140.316 278.892 145.216 280.203 150.181 280.203C155.146 280.203 160.044 278.892 164.347 276.408L252.567 225.475C260.02 221.169 265.052 213.695 266.377 205.333V94.665ZM243.912 210.482L155.693 261.413C154.017 262.381 152.115 262.891 150.179 262.891C148.243 262.891 146.341 262.381 144.665 261.413L56.446 210.482C54.7699 209.514 53.3781 208.122 52.4104 206.445C51.4427 204.769 50.9332 202.868 50.933 200.932V99.066C50.9332 97.1304 51.4427 95.229 52.4104 93.5526C53.3781 91.8763 54.7699 90.4842 56.446 89.516L144.665 38.582C146.37 37.596 148.275 37.105 150.179 37.105C152.083 37.105 153.987 37.596 155.693 38.582L243.912 89.516C245.588 90.4838 246.98 91.8759 247.948 93.5523C248.916 95.2287 249.425 97.1303 249.425 99.066V200.932C249.425 202.868 248.915 204.769 247.948 206.445C246.98 208.122 245.588 209.514 243.912 210.482Z"
    fill="#83E8C2"
  />
  <path
    d="M138.166 200.367L117.097 188.204V190.915C117.097 192.148 116.087 193.03 114.984 193.03C114.631 193.03 114.272 192.94 113.932 192.743L111.585 191.389V215.716C111.585 216.422 111.96 217.072 112.572 217.426L136.192 231.063C136.51 231.247 136.848 231.33 137.178 231.33C137.438 231.33 137.695 231.279 137.934 231.179C138.174 231.08 138.392 230.934 138.575 230.751C138.759 230.567 138.904 230.349 139.003 230.109C139.102 229.87 139.153 229.613 139.153 229.353V202.077C139.153 201.731 139.061 201.39 138.888 201.09C138.715 200.79 138.466 200.541 138.166 200.367ZM225.394 119.608C225.066 119.608 224.729 119.692 224.409 119.876L200.789 133.512C200.489 133.685 200.239 133.934 200.066 134.235C199.892 134.535 199.8 134.875 199.8 135.222V159.549L202.15 158.194C202.49 157.997 202.85 157.907 203.2 157.909C204.303 157.909 205.315 158.789 205.315 160.022V162.733L226.383 150.569C226.993 150.217 227.37 149.567 227.37 148.861V121.585C227.37 121.325 227.319 121.068 227.22 120.828C227.121 120.588 226.975 120.37 226.792 120.187C226.608 120.003 226.39 119.858 226.151 119.758C225.911 119.659 225.654 119.608 225.394 119.608ZM225.394 164.172C225.048 164.173 224.708 164.265 224.409 164.439L205.315 175.463V180.61C205.315 180.981 205.218 181.345 205.032 181.666C204.847 181.987 204.58 182.254 204.259 182.439L186.427 192.735C186.085 192.931 185.727 193.021 185.374 193.021C185.096 193.021 184.822 192.966 184.565 192.86C184.309 192.753 184.076 192.597 183.88 192.401C183.684 192.205 183.528 191.972 183.422 191.715C183.316 191.458 183.262 191.184 183.262 190.906V188.196L162.195 200.358C161.895 200.531 161.645 200.781 161.472 201.081C161.298 201.381 161.206 201.721 161.206 202.068V229.344C161.206 230.496 162.151 231.32 163.182 231.32C163.512 231.32 163.849 231.236 164.167 231.053L226.384 195.132C226.994 194.78 227.372 194.128 227.372 193.423V166.147C227.37 164.998 226.425 164.172 225.394 164.172ZM125.57 75.074C124.255 75.834 124.255 77.732 125.57 78.492L144.665 89.515L149.123 86.94C149.45 86.751 149.814 86.659 150.178 86.659C150.542 86.659 150.907 86.751 151.232 86.94L169.065 97.237C170.473 98.049 170.473 100.08 169.065 100.893L166.716 102.248L187.786 114.412C188.086 114.585 188.427 114.676 188.773 114.676C189.12 114.676 189.461 114.585 189.761 114.412L213.381 100.773C214.697 100.014 214.697 98.116 213.381 97.357L151.165 61.434C150.865 61.2602 150.524 61.1686 150.178 61.1686C149.831 61.1686 149.49 61.2602 149.19 61.434L125.57 75.074ZM86.976 97.358C85.659 98.117 85.659 100.016 86.976 100.775L110.597 114.414C110.897 114.587 111.238 114.678 111.585 114.678C111.931 114.678 112.272 114.587 112.572 114.414L133.639 102.249L131.289 100.895C129.883 100.081 129.883 98.05 131.289 97.238L133.639 95.882L112.57 83.72C112.27 83.5476 111.929 83.4569 111.583 83.4569C111.237 83.4569 110.896 83.5476 110.596 83.72L86.976 97.358ZM100.556 207.06V185.012L96.097 182.436C95.7761 182.251 95.5097 181.984 95.3247 181.663C95.1396 181.343 95.0425 180.978 95.043 180.608V160.016C95.0425 159.738 95.0968 159.463 95.2028 159.206C95.3089 158.95 95.4646 158.716 95.661 158.52C95.8574 158.324 96.0907 158.168 96.3474 158.062C96.6041 157.956 96.8792 157.901 97.157 157.902C97.509 157.902 97.868 157.99 98.208 158.188L100.558 159.544V135.215C100.558 134.509 100.182 133.859 99.57 133.505L75.949 119.871C75.6502 119.696 75.3103 119.603 74.964 119.603C74.7046 119.603 74.4477 119.654 74.208 119.753C73.9683 119.853 73.7505 119.998 73.5671 120.182C73.3837 120.365 73.2382 120.583 73.1391 120.823C73.0399 121.063 72.9889 121.32 72.989 121.579V193.421C72.989 194.125 73.364 194.777 73.976 195.129L97.596 208.767C97.915 208.95 98.252 209.033 98.581 209.033C99.611 209.034 100.556 208.211 100.556 207.06Z"
    fill="#83E8C2"
  />
  <path
    d="M161.783 156.12C161.414 156.489 161.207 156.989 161.206 157.511V184.788L161.207 184.79C161.207 184.962 161.235 185.122 161.273 185.277C161.286 185.323 161.301 185.367 161.318 185.415C161.353 185.523 161.398 185.627 161.451 185.726C161.474 185.766 161.494 185.809 161.521 185.849C161.595 185.963 161.677 186.069 161.771 186.164C161.784 186.176 161.792 186.191 161.803 186.201C161.911 186.306 162.033 186.394 162.161 186.471C162.198 186.493 162.236 186.51 162.275 186.53C162.526 186.662 162.802 186.738 163.085 186.754C163.113 186.756 163.139 186.761 163.166 186.763C163.274 186.763 163.381 186.741 163.49 186.724C163.551 186.715 163.612 186.716 163.673 186.7C163.835 186.658 163.997 186.591 164.155 186.501C164.159 186.499 164.165 186.499 164.169 186.496L183.263 175.473V170.325C183.263 170.08 183.317 169.848 183.396 169.625C183.559 169.151 183.886 168.75 184.319 168.496L188.777 165.922V143.874C188.777 143.701 188.749 143.54 188.711 143.384C188.698 143.338 188.682 143.294 188.667 143.248C188.632 143.14 188.587 143.036 188.532 142.937C188.509 142.895 188.489 142.854 188.464 142.815C188.391 142.7 188.305 142.592 188.209 142.495C188.198 142.484 188.189 142.472 188.18 142.462C188.072 142.358 187.951 142.268 187.822 142.192C187.786 142.17 187.746 142.152 187.708 142.133C187.568 142.06 187.421 142.003 187.268 141.963C187.146 141.934 187.023 141.916 186.898 141.909C186.868 141.907 186.844 141.902 186.818 141.9C186.708 141.9 186.598 141.92 186.488 141.939C186.43 141.949 186.37 141.947 186.31 141.963C186.136 142.007 185.968 142.076 185.813 142.166L162.193 155.803C162.043 155.89 161.905 155.997 161.783 156.12ZM138.164 155.794L114.55 142.16C114.394 142.07 114.227 142.002 114.052 141.958C113.996 141.941 113.94 141.944 113.886 141.934C113.772 141.914 113.658 141.894 113.545 141.895C113.519 141.895 113.495 141.902 113.47 141.902C113.34 141.909 113.214 141.929 113.092 141.958C113.045 141.97 113.003 141.985 112.957 141.998C112.852 142.032 112.75 142.076 112.652 142.128C112.614 142.147 112.575 142.164 112.538 142.186C112.409 142.263 112.289 142.353 112.18 142.456L112.152 142.491C112.056 142.588 111.971 142.695 111.897 142.809C111.872 142.849 111.851 142.892 111.828 142.933C111.774 143.033 111.73 143.136 111.693 143.244C111.623 143.446 111.586 143.657 111.583 143.871V165.915L116.039 168.488C116.36 168.673 116.627 168.939 116.812 169.26C116.998 169.58 117.095 169.944 117.095 170.315V175.462L136.185 186.485C136.347 186.578 136.515 186.645 136.683 186.688C136.739 186.704 136.795 186.701 136.853 186.711C136.965 186.73 137.079 186.751 137.19 186.751C137.216 186.751 137.24 186.744 137.265 186.742C137.395 186.737 137.521 186.716 137.643 186.686C137.69 186.676 137.732 186.661 137.778 186.647C137.883 186.613 137.985 186.568 138.084 186.517C138.121 186.497 138.16 186.481 138.196 186.459C138.325 186.382 138.445 186.292 138.555 186.189C138.565 186.178 138.574 186.164 138.583 186.155C138.678 186.058 138.764 185.951 138.839 185.835C138.863 185.795 138.884 185.753 138.907 185.713C138.961 185.615 139.005 185.51 139.042 185.401C139.112 185.199 139.15 184.988 139.152 184.774V157.506C139.152 157.159 139.06 156.818 138.887 156.518C138.714 156.217 138.464 155.968 138.164 155.794ZM151.166 136.696L174.786 123.059C176.103 122.299 176.103 120.399 174.786 119.641L155.692 108.616L151.233 111.191C150.912 111.376 150.548 111.473 150.178 111.473C149.808 111.473 149.444 111.376 149.123 111.191L144.666 108.618L125.571 119.641C125.261 119.818 125.005 120.077 124.831 120.389C124.669 120.683 124.584 121.014 124.584 121.35C124.584 121.686 124.669 122.017 124.831 122.311C124.996 122.607 125.244 122.869 125.571 123.059L149.193 136.696C149.493 136.87 149.833 136.961 150.18 136.961C150.526 136.961 150.866 136.87 151.166 136.696Z"
    fill="#83E8C2"
  />
</svg>
